X:1
T:351 - DireÃ§Ã£o Divina
T:Letra: Sarah Poulton Kalley (1825-1907)
T:MÃºsica: George Coles Stebbins (1846-1945)
M:4/4
L:1/8
Q:1/4=90
K:F#maj
V:1
C CF | "F#"A3A "B"GF ED | "F#"D2 C3C EF | "C#7"G3G GG FG | "F#"A4 zC CF | A3A "B"GF ED | "F#"F2 C3 F3 | "F#"FE DE "B"D3F | "F#/C#"F4 "C#7"E4 | "F#"F4 zF EF | "C#"G3G "G#7"GG A3/2G/2 | "C#7"G2 c3c cB | "F#"A3G "D#m"FF "G#7"EF | "C#"G4 zG "C#7"AB | "F#"A3G FF G3/2F/2 | "B"F2 B4 D2 | EF CC "F#/C#"C3F | F4 "C#7"E4 | "F#"F4z |] 
w:1.~As tu-as mÃ£os di-ri-gem meu des-ti-no. Ã“ Deus dea-mor, que sem-pre se-jaas-sim! Teus sÃ£o os meus po-de-res, mi-nha vi-da; Em tu-do,e-ter-no Pai, dis-pÃµe de mim. Meus di-as se-jam cur-tos ou com-pri-dos, Pas-sa-dos em tris-te-zas ou pra-zer, Em som-braou luz, Ã© tu-do co-moor-de-nas Eeu te-nho por bem-vin-doo teu que-rer.
w:2.~As tu-as mÃ£os di-ri-gem meu des-ti-no, Cra-va-das dan-tes na san-gren-ta cruz; Por meus pe-ca-dos fo-ram trans-pas-sa-do E pos-so ne-las des-can-sar, Je-sus! Nos cÃ©us er-gui-das, sem-prein-ter-ce-den-do As san-tas mÃ£os nÃ£o pe-di-rÃ£o em vÃ£o; Ao seu cui-da-do, em ple-na con-fian-Ã§a, En-tre-goa mi-nhae-ter-na sal-va-Ã§Ã£o.
w:3.~As tu-as mÃ£os di-ri-gem meu des-ti-no; A-ca-sos pa-ra mim nÃ£o ha-ve-rÃ¡. O gran-de Pai vi-gi-ao meu ca-mi-nho E sem mo-ti-vo nÃ£o mea-flin-gi-rÃ¡. Eu te-nhoem seu po-der cons-tan-team-pa-ro, For-teÃ© seu bra-Ã§o, i-men-soo seua-mor; Eem bre-ve,en-tran-do na ci-da-dee-ter-na Eu lou-va-rei meu gui-ae Sal-va-dor.
W:
W:1. As tuas mÃ£os dirigem meu destino.
W:Ã“ Deus de amor, que sempre seja assim!
W:Teus sÃ£o os meus poderes, minha vida;
W:Em tudo, eterno Pai, dispÃµe de mim.
W:Meus dias sejam curtos ou compridos,
W:Passados em tristezas ou prazer,
W:Em sombra ou luz, Ã© tudo como ordenas
W:E eu tenho por bem-vindo o teu querer.
W:
W:2. As tuas mÃ£os dirigem meu destino,
W:Cravadas dantes na sangrenta cruz;
W:Por meus pecados foram transpassado
W:E posso nelas descansar, Jesus!
W:Nos cÃ©us erguidas, sempre intercedendo
W:As santas mÃ£os nÃ£o pedirÃ£o em vÃ£o;
W:Ao seu cuidado, em plena confianÃ§a,
W:Entrego a minha eterna salvaÃ§Ã£o.
W:
W:
W:3. As tuas mÃ£os dirigem meu destino;
W:Acasos para mim nÃ£o haverÃ¡.
W:O grande Pai vigia o meu caminho
W:E sem motivo nÃ£o me aflingirÃ¡.
W:Eu tenho em seu poder constante amparo,
W:Forte Ã© seu braÃ§o, imenso o seu amor;
W:E em breve, entrando na cidade eterna
W:Eu louvarei meu guia e Salvador.
W:
W:
W:
W:

